website/assets/images/3dviewer_net_logo.svg

<svg xmlns="http://www.w3.org/2000/svg" xmlns:xlink="http://www.w3.org/1999/xlink" xml:space="preserve" width="60" height="60"><g transform="translate(4.317 -.117)"><defs><path id="a" d="M-5-1h62v62H-5z"/></defs><clipPath id="b"><use xlink:href="#a" overflow="visible" style="overflow:visible" width="100%" height="100%"/></clipPath><g clip-path="url(#b)"><defs><path id="c" d="M-5-1h62v62H-5z"/></defs><clipPath id="d"><use xlink:href="#c" overflow="visible" style="overflow:visible" width="100%" height="100%"/></clipPath><path clip-path="url(#d)" style="fill:#64c0ff" d="m38.4 37.1 12.4 7.3L26 58.6 1.2 44.4l12.4-7.3L26 44.4l12.4-7.3L26 44.4l-12.4-7.3"/><path clip-path="url(#d)" style="fill:none;stroke:#000;stroke-width:1.03330004;stroke-linecap:round;stroke-linejoin:round;stroke-miterlimit:10" d="m38.4 37.1 12.4 7.3L26 58.6 1.2 44.4l12.4-7.3L26 44.4l12.4-7.3L26 44.4l-12.4-7.3"/><path clip-path="url(#d)" style="fill:#64c0ff" d="M38.4 22.9 26 15.6V1.4l24.8 14.2v28.8l-12.4-7.3z"/><path clip-path="url(#d)" style="fill:none;stroke:#000;stroke-width:1.03330004;stroke-linecap:round;stroke-linejoin:round;stroke-miterlimit:10" d="M38.4 22.9 26 15.6V1.4l24.8 14.2v28.8l-12.4-7.3z"/><path clip-path="url(#d)" style="fill:#64c0ff" d="M26 30v14.4l12.4-7.3V22.9z"/><path clip-path="url(#d)" style="fill:none;stroke:#000;stroke-width:1.03330004;stroke-linecap:round;stroke-linejoin:round;stroke-miterlimit:10" d="M26 30v14.4l12.4-7.3V22.9z"/><path clip-path="url(#d)" style="fill:#64c0ff" d="M13.6 37.1V22.9L26 15.6V1.4L1.2 15.6v28.8z"/><path clip-path="url(#d)" style="fill:none;stroke:#000;stroke-width:1.03330004;stroke-linecap:round;stroke-linejoin:round;stroke-miterlimit:10" d="M13.6 37.1V22.9L26 15.6V1.4L1.2 15.6v28.8z"/><path clip-path="url(#d)" style="fill:#64c0ff" d="m26 15.6-12.4 7.3L26 30l12.4-7.1z"/><path clip-path="url(#d)" style="fill:none;stroke:#000;stroke-width:1.03330004;stroke-linecap:round;stroke-linejoin:round;stroke-miterlimit:10" d="m26 15.6-12.4 7.3L26 30l12.4-7.1z"/><path clip-path="url(#d)" style="fill:#64c0ff" d="M13.6 22.9 26 30v14.4l-12.4-7.3z"/><path clip-path="url(#d)" style="fill:none;stroke:#000;stroke-width:1.03330004;stroke-linecap:round;stroke-linejoin:round;stroke-miterlimit:10" d="M13.6 22.9 26 30v14.4l-12.4-7.3z"/><g clip-path="url(#d)"><defs><path id="e" d="M-5-1h62v62H-5z"/></defs><clipPath id="f"><use xlink:href="#e" overflow="visible" style="overflow:visible" width="100%" height="100%"/></clipPath><g clip-path="url(#f)" style="opacity:.3"><defs><path id="g" d="M26 1.4h24.8v43H26z"/></defs><clipPath id="h"><use xlink:href="#g" overflow="visible" style="overflow:visible" width="100%" height="100%"/></clipPath><path clip-path="url(#h)" style="fill:#010202" d="M38.4 22.9 26 15.6V1.4l24.8 14.2v28.8l-12.4-7.3z"/></g><g clip-path="url(#f)" style="opacity:.6"><defs><path id="i" d="M26 22.9h12.4v21.5H26z"/></defs><clipPath id="j"><use xlink:href="#i" overflow="visible" style="overflow:visible" width="100%" height="100%"/></clipPath><path clip-path="url(#j)" style="fill:#010202" d="M26 30v14.4l12.4-7.3V22.9z"/></g><g clip-path="url(#f)" style="opacity:.6"><defs><path id="k" d="M1.2 1.4H26v43H1.2z"/></defs><clipPath id="l"><use xlink:href="#k" overflow="visible" style="overflow:visible" width="100%" height="100%"/></clipPath><path clip-path="url(#l)" style="fill:#010202" d="M13.6 37.1V22.9L26 15.6V1.4L1.2 15.6v28.8z"/></g><g clip-path="url(#f)" style="opacity:.3"><defs><path id="m" d="M13.6 22.9H26v21.5H13.6z"/></defs><clipPath id="n"><use xlink:href="#m" overflow="visible" style="overflow:visible" width="100%" height="100%"/></clipPath><path clip-path="url(#n)" style="fill:#010202" d="M13.6 22.9 26 30v14.4l-12.4-7.3z"/></g></g><path clip-path="url(#d)" style="fill:none;stroke:#000;stroke-width:1.03330004;stroke-linecap:round;stroke-linejoin:round;stroke-miterlimit:10" d="m38.4 37.1 12.4 7.3L26 58.6 1.2 44.4l12.4-7.3L26 44.4l12.4-7.3L26 44.4l-12.4-7.3"/><path clip-path="url(#d)" style="fill:none;stroke:#000;stroke-width:1.03330004;stroke-linecap:round;stroke-linejoin:round;stroke-miterlimit:10" d="M38.4 22.9 26 15.6V1.4l24.8 14.2v28.8l-12.4-7.3z"/><path clip-path="url(#d)" style="fill:none;stroke:#000;stroke-width:1.03330004;stroke-linecap:round;stroke-linejoin:round;stroke-miterlimit:10" d="M26 30v14.4l12.4-7.3V22.9zm-12.4 7.1V22.9L26 15.6V1.4L1.2 15.6v28.8z"/><path clip-path="url(#d)" style="fill:none;stroke:#000;stroke-width:1.03330004;stroke-linecap:round;stroke-linejoin:round;stroke-miterlimit:10" d="m26 15.6-12.4 7.3L26 30l12.4-7.1z"/><path clip-path="url(#d)" style="fill:none;stroke:#000;stroke-width:1.03330004;stroke-linecap:round;stroke-linejoin:round;stroke-miterlimit:10" d="M13.6 22.9 26 30v14.4l-12.4-7.3z"/></g></g></svg>

<?xml version="1.0" encoding="UTF-8" standalone="no"?>
<svg
   xml:space="preserve"
   width="60"
   height="60"
   version="1.1"
   id="svg100"
   xmlns:xlink="http://www.w3.org/1999/xlink"
   xmlns="http://www.w3.org/2000/svg"
   xmlns:svg="http://www.w3.org/2000/svg"><defs
     id="defs104"><clipPath
       id="d-5"><use
         xlink:href="#c"
         overflow="visible"
         style="overflow:visible"
         width="100%"
         height="100%"
         id="use11-8" /></clipPath></defs><g
     transform="translate(4.4,-0.117)"
     id="g98"><defs
       id="defs3"><path
         id="a"
         d="M -5,-1 H 57 V 61 H -5 Z" /></defs><clipPath
       id="b"><use
         xlink:href="#a"
         overflow="visible"
         style="overflow:visible"
         width="100%"
         height="100%"
         id="use5"
         x="0"
         y="0" /></clipPath><g
       clip-path="url(#b)"
       id="g96"><defs
         id="defs9"><path
           id="c"
           d="M -5,-1 H 57 V 61 H -5 Z" /></defs><clipPath
         id="d"><use
           xlink:href="#c"
           overflow="visible"
           style="overflow:visible"
           width="100%"
           height="100%"
           id="use11"
           x="0"
           y="0" /></clipPath><path
         clip-path="url(#d)"
         style="fill:#4688b4;fill-opacity:1;stroke:#000000;stroke-width:1;stroke-linecap:round;stroke-linejoin:round;stroke-miterlimit:10;stroke-dasharray:none"
         d="M 38.4,22.9 25.960908,15.6 V 1.4 l 24.8,14.2 V 44.4 L 38.4,37.1 Z"
         id="path20"
         transform="translate(0.03909208,0.0225695)" /><path
         clip-path="url(#d-5)"
         style="fill:#64c0ff;fill-opacity:1;stroke:#000000;stroke-width:1;stroke-linecap:round;stroke-linejoin:round;stroke-miterlimit:10;stroke-dasharray:none"
         d="M 38.4,22.9 26,15.6 26.019546,1.4338547 50.8,15.6 l 0,28.8 -12.4,-7.3 z"
         id="path20-5"
         transform="rotate(120,26,30.081713)" /><path
         clip-path="url(#d)"
         style="fill:#294e67;fill-opacity:1;stroke:#000000;stroke-width:1;stroke-linecap:round;stroke-linejoin:round;stroke-miterlimit:10;stroke-dasharray:none"
         d="M 26,30 V 44.4 L 38.4,37.1 V 22.9 Z"
         id="path24" /><path
         clip-path="url(#d)"
         style="fill:#294e67;fill-opacity:1;stroke:#000000;stroke-width:1;stroke-linecap:round;stroke-linejoin:round;stroke-miterlimit:10;stroke-dasharray:none"
         d="M 13.6,37.1 V 22.9 L 26,15.6 V 1.4225695 L 1.2,15.6 v 28.8 z"
         id="path28" /><path
         clip-path="url(#d)"
         style="fill:#64c0ff;fill-opacity:1;stroke:#000000;stroke-width:1;stroke-linecap:round;stroke-linejoin:round;stroke-miterlimit:10;stroke-dasharray:none"
         d="M 26,15.6 13.6,22.9 26,30 38.4,22.9 Z"
         id="path92" /><path
         clip-path="url(#d)"
         style="fill:#4688b4;fill-opacity:1;stroke:#000000;stroke-width:1;stroke-linecap:round;stroke-linejoin:round;stroke-miterlimit:10;stroke-dasharray:none"
         d="M 13.6,22.9 26,30 V 44.4 L 13.6,37.1 Z"
         id="path94" /></g></g></svg>
